X:1
T:Happy streams whose trembling fall - Wilbye
T:#
%%score 1 2 3
L:1/8
Q:1/4=120
M:4/4
K:F
V:1 treble nm="Soprano I" snm="S"
V:2 treble nm="Soprano II"
V:3 treble nm="Alto" snm="A"
V:1
"^Happy streams, whose trembling fall""^John Wilbye\n (1574-1638)"!mf! (FGA)A A2 A2 | A2 F2 E4 | %2
w: Hap\- * * py streams, whose|tremb- ling fall,|
 (FGA)A A2 A2 |[M:4/4] A2 F2 E4 |!p! F2 A2 A2 A2 | A4 z2 B2 | A8 | A8 | z8 |!mf! (ABc)c c2 c2 | %10
w: hap\- * * py streams, whose|tremb- ling fall,|With still mur- mur|soft- ly|glid-|ing;||Hap\- * * py birds, whose|
 c2 A2 G4 | (ABc)c c2 c2 | c2 A2 G2 GG | A2 A2 (GABA | G2) F2 (A2 G2) | F2!p! (A4 GF) | E4 F4 | %17
w: chirp- ing call,|hap\- * * py birds, whose|chirp- ing call, With sweet|me- lo- dy * * *|* de- light\- *|ing, Hath * *|mov'd her|
 E8 | D2 d4 c2 | B4 G4 | c4 c2 c2- | c2 B2 A4- | A2 (GF) G4- | G2 (FE) D2 D2 | E4 C4- | C4 c4- | %26
w: flin-|ty and re-|lent- less|heart, Hath mov'd|* her flin\-|* ty * and|* re\- * lent- less|heart, To|* list\-|
 c4 B4 | A4 G4- | G4 F4 | E8 | D4 A4 | G6 G2 | ^F4 z2!mf! d2 | (=BABc d2) c2 | =B2 G2 B2 A2 | G8- | %36
w: * en|to your|* har-|mo-|ny; your|har- mo-|ny, En-|chant\- * * * * ed|with your me- lo-|dy,|
 G4 z2!p! G2 | (^FEFG A2) G2 | ^F2 D2 F2 E2 | D4 z4 | A2 A4 ^G2 | A8 | z4 z2!f! d2 | ^c2 A2 d2 D2 | %44
w: * en-|chant\- * * * * ed|with your me- lo-|dy,|your me- lo-|dy.|Sing|on, and ca- rol|
 A3 G ^F2 (GF) | (ED) E2 D4 | z4 z2!p! d2 | ^c2 A2 d2 D2 | A3 G ^F2 (GF) | (ED) E2 D2!f! A2 | %50
w: forth your glee, sing *|on, * sing on,|sing|on, and ca- rol|forth your glee, sing *|on, * sing on. She|
 A4 =B4 | ^c2 A2 c2 d2 | e4 ^c4 | =B4 B4 || A4 A2 E2- | E^F G2 G2 D2- | DE ^F3 G A2- | %57
w: grants you|leave, she grants you|leave her|rays to|see, she grants|* you leave, she grants|* you leave her rays,|
 A2 (G^F) (ED) E2 | ^F8 ||[M:3/2]!p![Q:1/4=180] A6 G2 =F4 | E8 D4 | ^C12 | A6 A2 A4 | d8 c4 | %64
w: * her * rays * to|see:|Hap- py were|I, were|I,|hap- py were|I, were|
 B8 A4 | G4 G4 c4 |[M:3/2][Q:1/4=180][Q:1/4=180][Q:1/4=180] c4 B8 ||[M:4/4][Q:1/4=120] A8- | %68
w: I, could|love but so|de- light|her!|
 A4 z4 | A8 | c8- | c4 ^c4 | d4 d4 | e8 |[M:4/4][Q:1/4=120][Q:1/4=120][Q:1/4=120] A8- | A4 A4 | %76
w: |But|Ah!|* a-|las! my|love|doth|* still|
 B4 (A4- | A4 G4) | A4 A4 | =c6 =B2 | A4!pp! G4 | F4 E4- | E4 D4- | D4 ^C4 | D4 A4 | G8- | G4 F4 | %87
w: des- pite||her, but|ah! a-|las! a-|las! my|* love|* ~~doth|still des-|pite,|* des-|
 E8 | ^F16 |] %89
w: pite|her.|
V:2
 z8 |!mf! (FGA)A A2 A2 | A2 F2 E4 |[M:4/4] (FGA)A A2 A2 | A2 F2 E2!p! EE | F2 F2 (EFGF | %6
w: |Hap\- * * py streams, whose|tremb- ling fall,|hap\- * * py streams, whose|tremb- ling fall, With still|mur- mur soft\- * * *|
 E2) D2 E4 | ^F8 |!mf! (ABc)c c2 c2 | c2 A2 G4 | (ABc)c c2 c2 | c2 A2 G4 | A2 c2 c2 c2 | c4 z2 d2 | %14
w: * ly glid-|ing;|Hap\- * * py birds, whose|chirp- ing call,|hap\- * * py birds, whose|chirp- ing call,|With sweet me- lo-|dy de-|
 c8 | c8 |!p! A8 | A6 G2 | F3 E D2 F2 | (F2 ED) E4 | F2 A2 A2 (GF) | E2 G4 F2- | F2 (ED) E2 C2 | %23
w: light-|ing,|Hath|mov'd her|flin- ty and re-|lent\- * * less|heart, hath mov'd her *|flin- ty and|* re\- * lent- less|
 =B,8 | C4 c4- | c2 _B2 (A4- | A2 GF G2) G2 | F4 B4 | A8 | z2 A2 A4- | A2 (=Bc) d2 c2 | %31
w: heart,|To list\-|* en to|* * * * your|har- mo-|ny;|And sit|* se\- * cure- ly|
 =B2 G2 B2 (AG) | A6!mf! A2 | (G^FGA =B2 A2) | G4 z2 d2 | (=BABc d2) c2 | =B2 G2 A2 (Bc) | d8 | %38
w: in these downs a\- *|part, En-|chant\- * * * * *|ed, *|chant\- * * * * ed|with your me- lo\- *|dy,|
 z4!p! A4 | (^FEFG A2) G2 | ^F3 F E2 D2 | E6!f! D2 | E2 E2 D4 | z4 z2 d2 | ^c2 A2 d2 D2 | %45
w: en-|chant\- * * * * ed|with your me- lo-|dy, your|me- lo- dy.|Sing|on, and ca- rol|
 A3 G ^F2 (ED) | E2 E2 D4 | z4 z2!p! d2 | ^c2 A2 d2 D2 | A3 G ^F3!f! E | (^FG A4) ^G2 | A6 A2 | %52
w: forth your glee, sing *|on, sing on,|sing|on, and ca- rol|forth your glee. She|grants * * you|leave her|
 =B4 A4 | A4 ^G4 || A2 A2 ^c3 d | e2 e2 =B3 =c | d2 d2 A3 =B | ^c2 d2 e2 e2 | d8 ||[M:3/2] z12 | %60
w: rays, her|rays to|see, she grants you|leave, she grants you|leave, she grants you|leave her rays to|see:||
!p! A6 G2 =F4 | E12 | F6 F2 E4 | (D6 E2) F4 | G6 G2 C2 D2 | E6 D2 E2 C2 |[M:3/2] (F8 E4) || %67
w: Hap- py were|I,|hap- py were|I, * were|I, could love, could|love but so de-|light *|
[M:4/4] F8 | z8 | E8 | A8- | A4 (G4- | G2 F2) F4- | F2 E2 E4- |[M:4/4] E2 D2 D4- | D4 ^C4 | D6 E2 | %77
w: her!||But|Ah!|* a|* * las!|* a- las!|* a- las!|* my|love doth|
 F4 D4 | F4 E4- | E4 A4 | c6!pp! =B2 | A4 G4- | G4 F4 | E8 | D8 | B8 | A8- | A8 | A16 |] %89
w: still des-|pite her,|* but|ah! a-|las! my|* love|doth|still|des-|pite||her.|
V:3
 z8 |!mf! D3 D ^C2 A,2 | F,2 D,2 A,4 |[M:4/4] D3 D ^C2 A,2 | F,2 D,2 A,2!p! A,A, | A,3 =B, (^CDED | %6
w: |Hap- py streams, whose|trem- bling fall,|hap- py streams, whose|trem- bling fall, With still|mur- mur soft\- * * *|
 ^C2) D2 (D2 C2) | D8 |!mf! F3 F E2 C2 | A,2 F,2 C4 | F3 F E2 C2 | A,2 F,2 C4 | F3 F E2 E2 | %13
w: * ly glid\- *|ing;|Hap- py birds, whose|chirp- ing call,|hap- py birds, whose|chirp- ing call,|With sweet me- lo-|
 F2 F2 (EFGF | E2 F4 E2) | F6!p! (ED) | ^C4 D4 | D4 ^C4 | D3 =C B,2 C2 | D4 B,4- | %20
w: dy de- light\- * * *||ing, Hath *|mov'd her|flin- ty|and re- lent- less|heart and|
 B,2 (A,G,) A,2 B,2 | C8- | C4 G,4- | G,4 G4- | G2 F2 E2 D2 | E4 (F4- | F2 ED E4) | F4 E4- | %28
w: * re\- * lent- less|heart,|* To|* list\-||en to||your har\-|
 E4 (D4- | D4 ^C4) | D8 | z4 z2!mf! D2 | (D=CDE ^F2) F2 | G4 G,4 | (DCDE D2) A,2 | %35
w: * mo\-||ny;|En-|chant\- * * * * ed|with, en-|chant\- * * * * ed|
 =B,2 G,2 B,2 A,2 | G,4!p! D4 | (DCDE ^F2) E2 | D4 z2 A,2 | (DCDE ^F2) E2 | D4 z2!f! D2 | %41
w: with your me- lo-|dy, en-|chant\- * * * * ed|with your|me\- * * * * lo-|dy. Sing|
 ^C2 A,2 A2 ^F2 | A3 G ^F4 | E4 D4 | z8 | z2 A2 A2 ^F2 | A3 G ^F4 |!p! E4 D4 | z8 | z2!f! A2 A3 G | %50
w: on, and ca- rol|forth your glee,|sing on,||sing on, and|ca- rol forth|your glee,||She grants you|
 ^F2 E2 D2 E2 | E6 E2 | E4 E4 | E6 E2 || ^C3 D E3 ^F | G2 G2 D3 E | ^F3 G A2 F2 | E2 (D4 ^C2) | %58
w: leave her rays to|see, her|rays to|see, she|grants you leave her|rays to see, she|grants you leave her|rays to *|
 D8 ||[M:3/2]!p! =F6 E2 D4 | ^C8 D4 | A,12 | z12 | z12 | z12 | z12 |[M:3/2] z12 ||[M:4/4] z4 A,4 | %68
w: see:|Hap- py were|I, were|I.||||||But|
 C8- | C4 B,4 | A,6 B,2 | C4 G,4 | B,4 A,4- | A,4 G,4 |[M:4/4] F,4 F4 | E4 E4 | F6 E2 | D4 D4 | %78
w: Ah!|* a-|las! my|love doth|still des\-|* pite|her, but|ah! a-|las! a-|las! my|
 ^C4 A,4 | A6 G2 | F4 E4 | z2!pp! A,4 =B,2 | ^C4 D4 | E8 | A,4 D4- | D4 E4 | (^C4 D4- | D4 ^C4) | %88
w: love doth|still des-|pite her,|ah! a-|las! my|love|doth still|* des-|pite *||
 D16 |] %89
w: her.|

